X:1
T:Title
%%score ( 1 2 ) ( 3 4 )
L:1/8
Q:1/4=100
M:4/4
K:D
V:1 treble nm="Midi_20"
V:2 treble 
V:3 bass nm="Midi_20"
V:4 bass 
V:1
"^Morning (77. 77. 77)""^William Henry Monk\n(1823-89)""^Hail, thou bright and sacred morn""^Julia Anne Elliott\n(1809-41)" A3 A d2 F2 | %1
 F2 E2 D4 | F3 F B2 A2 | G2 F2 E4 || F3 F d2 c2 | B2 A2 (A2 ^G2) | A3 B c2 e2 | c2 B2 A4 || %8
 A3 A B2 G2 | E2 A2 F4 | G2 A2 B2 A2 | B2 c2 d4 |] %12
V:2
 F3 G A2 D2 | D2 C2 D4 | D3 D D2 D2 | E2 D2 C4 || D3 E D2 E2 | F2 F2 E4 | C3 E E2 E2 | E2 ED C4 || %8
 D3 D D2 D2 | D2 C2 D4 | D2 D2 D2 D2 | G2 E2 F4 |] %12
V:3
 D3 C D2 A,2 | A,3 G, F,4 | A,3 A, G,2 F,2 | A,2 A,2 A,4 || A,3 ^A, B,2 A,2 | B,2 D2 (C2 B,2) | %6
"^1. Hail, thou bright and sacred morn,\nRisen with gladness in thy beams!\nLight, which not of earth is born,\nFrom thy dawn in glory streams;\nAirs of heaven are breathed around,\nAnd each place is holy ground.\n\n2. Great Creator, who this day\nFrom Thy perfect work didst rest,\nBy the souls that own Thy sway\nHallowed by its hours and blest;\nCares of earth aside be thrown,\nThis day given to heaven alone.\n" A,3 ^G, A,2 A,2 | %7
 A,2 ^G,2 A,4 || %8
 F,3 F, G,2"^3. Saviour, who this day didst break\nThe dark prison of the tomb,\nBid my slumbering soul awake,\nShine through all its sin and gloom;\nLet me, from my bonds set free,\nRise from sin, and live to Thee.\n\n4. Blessed Spirit, Comforter,\nSent this day from Christ on high,\nLord, on me Thy gifts confer,\nCleanse, illumine, sanctify;\nAll Thine influence shed abroad;\nLead me to the truth of God.\n" B,2 | %9
 A,2 A,2 A,4 | G,2 F,2 G,2 D2 | D2 A,2 A,4 |] %12
V:4
 D,3 E, F,3 G, | A,2 A,,2 D,4 | D,3 D, G,,2 D,2 | C,2 D,2 A,,4 || D,3 C, B,,2 C,2 | D,2 D,2 E,4 | %6
 F,3 E, A,,B,, C,D, | E,2 E,2 A,,4 || D,3 D, G,2 E,2 | A,2 A,,2 D,4 | B,,2 D,2 G,2 F,2 | %11
 G,2 A,2 D,4 |] %12

